images_sukapura_svg/cmd/32/deleterows.svg

<svg viewBox="0 0 32 32" xmlns="http://www.w3.org/2000/svg"><path d="m10 9h18v4h-18z" fill="#fe665f" fill-opacity=".968627"/><path d="m4 3v5h18v-5zm0 11v1 14h11 4 3v-3-4-7-1z" fill="#fff"/><path d="m3 2v1 5h1 5 1 5 1 6 1v-1-4-1h-19zm1 1h5v4h-5zm6 0h5v4h-5zm6 0h6v4h-6zm-13 11v15c0 .554.446 1 1 1h18c.554 0 1.033514-.447015 1-1v-3-1-1-2-8h-1-6-1-5-1-5zm1 1h5v4h-5zm6 0h5v4h-5zm6 0h6v4h-6zm-12 5h5v4h-5zm6 0h5v2 2h-5zm6 0h6v2 2h-6v-1.716797-.283203zm-12 5h5v4h-5zm6 0h5v.716797 3.283203h-5zm6 0h6v1 3h-6z" fill="#bababa"/><path d="m9 8v1 5h1 5 1 5 1 6 1v-1-4-1h-19zm1 1h5v4h-5zm6 0h5v4h-5zm6 0h6v4h-6z" fill="#c20618"/><path d="m3 2v1 5h1v-1-4h5 1 5 1 6v4 1h1v-1-4-1h-19zm0 12v15c0 .554.446 1 1 1h18c.554 0 1.033514-.447015 1-1v-3-1-1-2-8h-1v1 4 1 2 2 1 1 3h-3-3-1-5-1-5v-4-1-4-1-4-1z" fill="#69696e"/><path d="m3 2v1 5h1v-1-4h5 1 5 1 6v4 1h1v-1-4-1h-19zm0 12v15c0 .554.446 1 1 1h18c.554 0 1.033514-.447015 1-1v-3-1-1-2-8h-1v1 4 1 2 2 1 1 3h-3-3-1-5-1-5v-4-1-4-1-4-1z" fill="#69696e"/><path d="m3.016971 7.995983-.988221.938006 1.785626 1.833833a.30663488.30663488 0 0 1 -.0021.429836l-1.787636 1.805713.99023.978178 1.787635-1.890073a.30663488.30663488 0 0 1 .445905 0l1.789687 1.888064.972153-.970144-1.769558-1.801695a.30663488.30663488 0 0 1 -.008-.419793l1.707323-1.89409-.940015-.893818-1.75349 1.797679a.30663488.30663488 0 0 1 -.435862.002z" fill="#c20618" stroke-width=".761218"/></svg>

<?xml version="1.0" encoding="UTF-8" standalone="no"?>
<svg
   xmlns:dc="http://purl.org/dc/elements/1.1/"
   xmlns:cc="http://creativecommons.org/ns#"
   xmlns:rdf="http://www.w3.org/1999/02/22-rdf-syntax-ns#"
   xmlns:svg="http://www.w3.org/2000/svg"
   xmlns="http://www.w3.org/2000/svg"
   xmlns:sodipodi="http://sodipodi.sourceforge.net/DTD/sodipodi-0.dtd"
   xmlns:inkscape="http://www.inkscape.org/namespaces/inkscape"
   viewBox="0 0 32 32"
   version="1.1"
   id="svg10"
   sodipodi:docname="deleterows.svg"
   inkscape:export-filename="/home/rizmut/Dokumen/Rizmut/Github/libreoffice-style-sukapura/images_sukapura/cmd/32/deleterows.png"
   inkscape:export-xdpi="96"
   inkscape:export-ydpi="96"
   inkscape:version="0.92.3 (unknown)">
  <metadata
     id="metadata16">
    <rdf:RDF>
      <cc:Work
         rdf:about="">
        <dc:format>image/svg+xml</dc:format>
        <dc:type
           rdf:resource="http://purl.org/dc/dcmitype/StillImage" />
        <dc:title></dc:title>
      </cc:Work>
    </rdf:RDF>
  </metadata>
  <defs
     id="defs14" />
  <sodipodi:namedview
     pagecolor="#ffffff"
     bordercolor="#666666"
     borderopacity="1"
     objecttolerance="10"
     gridtolerance="10"
     guidetolerance="10"
     inkscape:pageopacity="0"
     inkscape:pageshadow="2"
     inkscape:window-width="1366"
     inkscape:window-height="697"
     id="namedview12"
     showgrid="true"
     inkscape:zoom="3.6875"
     inkscape:cx="11.572893"
     inkscape:cy="21.178706"
     inkscape:window-x="0"
     inkscape:window-y="0"
     inkscape:window-maximized="1"
     inkscape:current-layer="svg10">
    <inkscape:grid
       type="xygrid"
       id="grid823"
       spacingx="0.5"
       spacingy="0.5"
       empspacing="2" />
  </sodipodi:namedview>
  <rect
     style="opacity:1;fill:#fe665f;fill-opacity:0.96862745;stroke:none;stroke-width:1;stroke-linecap:round;stroke-linejoin:round;stroke-miterlimit:4;stroke-dasharray:none;stroke-opacity:0"
     id="rect889"
     width="18"
     height="4"
     x="10"
     y="9" />
  <path
     d="M 4,3 V 8 H 22 V 3 Z m 0,11 v 1 14 h 11 4 3 v -3 -4 -7 -1 z"
     id="path2"
     style="fill:#ffffff;fill-opacity:1"
     inkscape:connector-curvature="0"
     sodipodi:nodetypes="cccccccccccccccc" />
  <path
     style="fill:#bababa;fill-opacity:1"
     d="M 3 2 L 3 3 L 3 8 L 4 8 L 9 8 L 10 8 L 15 8 L 16 8 L 22 8 L 23 8 L 23 7 L 23 3 L 23 2 L 4 2 L 3 2 z M 4 3 L 9 3 L 9 7 L 4 7 L 4 3 z M 10 3 L 15 3 L 15 7 L 10 7 L 10 3 z M 16 3 L 22 3 L 22 7 L 16 7 L 16 3 z M 3 14 L 3 29 C 3 29.554 3.446 30 4 30 L 22 30 C 22.554 30 23.033514 29.552985 23 29 L 23 26 L 23 25 L 23 24 L 23 22 L 23 14 L 22 14 L 16 14 L 15 14 L 10 14 L 9 14 L 4 14 L 3 14 z M 4 15 L 9 15 L 9 19 L 4 19 L 4 15 z M 10 15 L 15 15 L 15 19 L 10 19 L 10 15 z M 16 15 L 22 15 L 22 19 L 16 19 L 16 15 z M 4 20 L 9 20 L 9 24 L 4 24 L 4 20 z M 10 20 L 15 20 L 15 22 L 15 24 L 10 24 L 10 20 z M 16 20 L 22 20 L 22 22 L 22 24 L 16 24 L 16 22.283203 L 16 22 L 16 20 z M 4 25 L 9 25 L 9 29 L 4 29 L 4 25 z M 10 25 L 15 25 L 15 25.716797 L 15 29 L 10 29 L 10 25 z M 16 25 L 22 25 L 22 26 L 22 29 L 16 29 L 16 25 z "
     id="path4" />
  <path
     id="path887"
     d="m 9,8 v 1 5 h 1 5 1 5 1 6 1 V 13 9 8 H 10 Z m 1,1 h 5 v 4 h -5 z m 6,0 h 5 v 4 h -5 z m 6,0 h 6 v 4 h -6 z"
     inkscape:connector-curvature="0"
     style="fill:#c20618;fill-opacity:1" />
  <path
     style="fill:#69696e;fill-opacity:1"
     d="M 3 2 L 3 3 L 3 8 L 4 8 L 4 7 L 4 3 L 9 3 L 10 3 L 15 3 L 16 3 L 22 3 L 22 7 L 22 8 L 23 8 L 23 7 L 23 3 L 23 2 L 4 2 L 3 2 z M 3 14 L 3 29 C 3 29.554 3.446 30 4 30 L 22 30 C 22.554 30 23.033514 29.552985 23 29 L 23 26 L 23 25 L 23 24 L 23 22 L 23 14 L 22 14 L 22 15 L 22 19 L 22 20 L 22 22 L 22 24 L 22 25 L 22 26 L 22 29 L 19 29 L 16 29 L 15 29 L 10 29 L 9 29 L 4 29 L 4 25 L 4 24 L 4 20 L 4 19 L 4 15 L 4 14 L 3 14 z "
     id="path902" />
  <path
     id="path907"
     d="M 3 2 L 3 3 L 3 8 L 4 8 L 4 7 L 4 3 L 9 3 L 10 3 L 15 3 L 16 3 L 22 3 L 22 7 L 22 8 L 23 8 L 23 7 L 23 3 L 23 2 L 4 2 L 3 2 z M 3 14 L 3 29 C 3 29.554 3.446 30 4 30 L 22 30 C 22.554 30 23.033514 29.552985 23 29 L 23 26 L 23 25 L 23 24 L 23 22 L 23 14 L 22 14 L 22 15 L 22 19 L 22 20 L 22 22 L 22 24 L 22 25 L 22 26 L 22 29 L 19 29 L 16 29 L 15 29 L 10 29 L 9 29 L 4 29 L 4 25 L 4 24 L 4 20 L 4 19 L 4 15 L 4 14 L 3 14 z "
     style="fill:#69696e;fill-opacity:1" />
  <path
     style="fill:#c20618;fill-opacity:1;stroke-width:0.76121777"
     d="M 3.016971,7.995983 2.02875,8.933989 3.814376,10.767822 a 0.30663488,0.30663488 0 0 1 -0.0021,0.429836 l -1.787636,1.805713 0.99023,0.978178 1.787635,-1.890073 a 0.30663488,0.30663488 0 0 1 0.445905,0 L 7.038097,13.97954 8.01025,13.009396 6.240692,11.207701 a 0.30663488,0.30663488 0 0 1 -0.008,-0.419793 L 7.940015,8.893818 7,8 5.24651,9.797679 a 0.30663488,0.30663488 0 0 1 -0.435862,0.002 z"
     id="path6"
     inkscape:connector-curvature="0" />
</svg>
